data/sheikah/f.svg

<!-- Generated by IcoMoon.io -->
<svg version="1.1" xmlns="http://www.w3.org/2000/svg" width="1024" height="1024" viewBox="0 0 1024 1024">
<title></title>
<g id="icomoon-ignore">
</g>
<path d="M153.5 273l119.5-119.5h478l119.5 119.5v199h-119.5v-199h-478v199h-119.5v-199zM153.5 552h119.5v199h79.5v-279l119.5-119.5h80l119.5 119.5v279h79.5v-199h119.5v199l-119.5 119.5h-79.5l-119.5-119.5v-279h-80v279l-119.5 119.5h-79.5l-119.5-119.5v-199z"></path>
</svg>

<svg xmlns="http://www.w3.org/2000/svg" width="1024" height="1024" viewBox="0 0 1024 1024">
  <title/>
  <path d="M153.5 273 273 153.5h478L870.5 273v199H751V273H273v199H153.5zm0 279H273v199h79.5V472L472 352.5h80L671.5 472v279H751V552h119.5v199L751 870.5h-79.5L552 751V472h-80v279L352.5 870.5H273L153.5 751z"/>
</svg>
